svgs/light/headphones.svg

<svg xmlns="http://www.w3.org/2000/svg" viewBox="0 0 512 512"><!--! Font Awesome Pro 6.6.0 by @fontawesome - https://fontawesome.com License - https://fontawesome.com/license (Commercial License) Copyright 2024 Fonticons, Inc. --><path d="M32.6 271.6C41 155.5 137.8 64 256 64s215 91.5 223.4 207.6C466.1 261.8 449.7 256 432 256c-26.5 0-48 21.5-48 48l0 128c0 26.5 21.5 48 48 48c44.2 0 80-35.8 80-80l0-32 0-32 0-48C512 146.6 397.4 32 256 32S0 146.6 0 288l0 48 0 32 0 32c0 44.2 35.8 80 80 80c26.5 0 48-21.5 48-48l0-128c0-26.5-21.5-48-48-48c-17.7 0-34.1 5.8-47.4 15.6zM32 336c0-26.5 21.5-48 48-48c8.8 0 16 7.2 16 16l0 128c0 8.8-7.2 16-16 16c-26.5 0-48-21.5-48-48l0-32 0-32zm448 0l0 32 0 32c0 26.5-21.5 48-48 48c-8.8 0-16-7.2-16-16l0-128c0-8.8 7.2-16 16-16c26.5 0 48 21.5 48 48z"/></svg>

<svg xmlns="http://www.w3.org/2000/svg" viewBox="0 0 512 512"><!--! Font Awesome Pro 6.5.2 by @fontawesome - https://fontawesome.com License - https://fontawesome.com/license (Commercial License) Copyright 2024 Fonticons, Inc. --><path d="M32.6 271.6C41 155.5 137.8 64 256 64s215 91.5 223.4 207.6C466.1 261.8 449.7 256 432 256c-26.5 0-48 21.5-48 48V432c0 26.5 21.5 48 48 48c44.2 0 80-35.8 80-80V368 336 288C512 146.6 397.4 32 256 32S0 146.6 0 288v48 32 32c0 44.2 35.8 80 80 80c26.5 0 48-21.5 48-48V304c0-26.5-21.5-48-48-48c-17.7 0-34.1 5.8-47.4 15.6zM32 336c0-26.5 21.5-48 48-48c8.8 0 16 7.2 16 16V432c0 8.8-7.2 16-16 16c-26.5 0-48-21.5-48-48V368 336zm448 0v32 32c0 26.5-21.5 48-48 48c-8.8 0-16-7.2-16-16V304c0-8.8 7.2-16 16-16c26.5 0 48 21.5 48 48z"/></svg>
